docs/img/stages-work21.svg

<svg width="309" height="308" viewBox="0 0 309 308" fill="none" xmlns="http://www.w3.org/2000/svg">
<path d="M154.194 0.849609C239.139 0.849618 308.285 69.7641 308.285 154.425C308.285 239.085 239.139 307.999 154.194 307.999C69.2494 307.999 0.103509 239.085 0.103516 154.425C0.103522 69.6618 69.1468 0.849601 154.194 0.849609ZM154.194 306.159C238.216 306.159 306.541 238.063 306.541 154.322C306.541 70.582 238.216 2.48558 154.194 2.48557C70.1727 2.48556 1.84757 70.582 1.84756 154.322C1.84756 238.063 70.1727 306.159 154.194 306.159Z" fill="#E1C78C"/>
<path d="M193.258 116.244L253.828 55.7265L253.103 55.0027L192.534 115.52L193.258 116.244Z" fill="#E1C78C"/>
<path d="M55.1761 253.863L115.78 193.38L115.056 192.656L54.452 253.139L55.1761 253.863Z" fill="#E1C78C"/>
<path d="M119.801 181H154.751V178.675H125.051L145.976 156.85C147.976 154.85 149.676 152.675 151.076 150.325C152.476 147.925 153.176 145.25 153.176 142.3C153.176 140.7 152.876 139.05 152.276 137.35C151.726 135.65 150.851 134.075 149.651 132.625C148.501 131.175 146.976 130 145.076 129.1C143.176 128.15 140.926 127.675 138.326 127.675C135.076 127.675 132.226 128.475 129.776 130.075C127.376 131.625 125.501 133.825 124.151 136.675C122.851 139.475 122.201 142.75 122.201 146.5H124.676C124.676 143.25 125.226 140.4 126.326 137.95C127.426 135.45 129.001 133.5 131.051 132.1C133.151 130.7 135.576 130 138.326 130C140.476 130 142.326 130.375 143.876 131.125C145.426 131.875 146.701 132.875 147.701 134.125C148.701 135.325 149.426 136.65 149.876 138.1C150.376 139.55 150.626 140.975 150.626 142.375C150.626 144.275 150.326 145.975 149.726 147.475C149.126 148.975 148.326 150.375 147.326 151.675C146.376 152.975 145.276 154.25 144.026 155.5L119.801 181Z" fill="#E1C78C"/>
<path d="M164.521 134.05L176.971 131.05V181H179.371V128.05L164.521 131.5V134.05Z" fill="#E1C78C"/>
</svg>

<svg width="309" height="308" viewBox="0 0 309 308" fill="none" xmlns="http://www.w3.org/2000/svg"><path d="M154.194.85c84.945 0 154.091 68.914 154.091 153.575 0 84.66-69.146 153.574-154.091 153.574-84.945 0-154.09-68.914-154.09-153.574C.104 69.662 69.147.85 154.194.85zm0 305.309c84.022 0 152.347-68.096 152.347-151.837 0-83.74-68.325-151.836-152.347-151.836-84.021 0-152.346 68.096-152.346 151.836 0 83.741 68.325 151.837 152.346 151.837z" fill="#E1C78C"/><path d="M193.258 116.244l60.57-60.517-.725-.724-60.569 60.517.724.724zM55.176 253.863l60.604-60.483-.724-.724-60.604 60.483.724.724zM119.801 181h34.95v-2.325h-29.7l20.925-21.825c2-2 3.7-4.175 5.1-6.525 1.4-2.4 2.1-5.075 2.1-8.025 0-1.6-.3-3.25-.9-4.95-.55-1.7-1.425-3.275-2.625-4.725-1.15-1.45-2.675-2.625-4.575-3.525-1.9-.95-4.15-1.425-6.75-1.425-3.25 0-6.1.8-8.55 2.4-2.4 1.55-4.275 3.75-5.625 6.6-1.3 2.8-1.95 6.075-1.95 9.825h2.475c0-3.25.55-6.1 1.65-8.55 1.1-2.5 2.675-4.45 4.725-5.85 2.1-1.4 4.525-2.1 7.275-2.1 2.15 0 4 .375 5.55 1.125 1.55.75 2.825 1.75 3.825 3 1 1.2 1.725 2.525 2.175 3.975.5 1.45.75 2.875.75 4.275 0 1.9-.3 3.6-.9 5.1-.6 1.5-1.4 2.9-2.4 4.2-.95 1.3-2.05 2.575-3.3 3.825L119.801 181zm44.72-46.95l12.45-3V181h2.4v-52.95l-14.85 3.45v2.55z" fill="#E1C78C"/></svg>
